src/lib/packages/icons/src/assets/filled/rugby-ball.svg

<svg width="24" height="24" viewBox="0 0 24 24" fill="none" xmlns="http://www.w3.org/2000/svg">
<path d="M15.42 3.16011C16.41 3.05011 17.46 2.9901 18.57 3.0001C19.9 3.0101 20.99 4.10009 21 5.43009C21.01 6.5901 20.95 7.68011 20.83 8.71011L15.42 3.1501V3.16011ZM3.16996 15.2801C3.04996 16.3101 2.98998 17.4001 2.99998 18.5601C3.00998 19.8901 4.09997 20.9801 5.42997 20.9901C6.53997 21.0001 7.58999 20.9401 8.57999 20.8301L3.16996 15.2701V15.2801ZM20.53 10.5601C19.37 16.1101 15.99 19.4401 10.4 20.5601L3.46 13.4301C4.62 7.88009 8 4.55009 13.59 3.43009L20.53 10.5601ZM15.05 9.99011L15.52 9.52011C15.81 9.23011 15.81 8.75011 15.52 8.46011C15.23 8.17011 14.75 8.17011 14.46 8.46011L13.99 8.93009L13.52 8.46011C13.23 8.17011 12.75 8.17011 12.46 8.46011C12.17 8.75011 12.17 9.23011 12.46 9.52011L12.93 9.99011L11.99 10.9301L11.02 9.96011C10.73 9.67011 10.25 9.67011 9.96 9.96011C9.67 10.2501 9.67 10.7301 9.96 11.0201L10.93 11.9901L9.98997 12.9301L9.52 12.4601C9.23 12.1701 8.75 12.1701 8.46 12.4601C8.17 12.7501 8.17 13.2301 8.46 13.5201L8.92997 13.9901L8.46 14.4601C8.17 14.7501 8.17 15.2301 8.46 15.5201C8.61 15.6701 8.79997 15.7401 8.98997 15.7401C9.17997 15.7401 9.37 15.6701 9.52 15.5201L9.98997 15.0501L10.46 15.5201C10.61 15.6701 10.8 15.7401 10.99 15.7401C11.18 15.7401 11.37 15.6701 11.52 15.5201C11.81 15.2301 11.81 14.7501 11.52 14.4601L11.05 13.9901L11.99 13.0501L12.96 14.0201C13.11 14.1701 13.3 14.2401 13.49 14.2401C13.68 14.2401 13.87 14.1701 14.02 14.0201C14.31 13.7301 14.31 13.2501 14.02 12.9601L13.05 11.9901L13.99 11.0501L14.46 11.5201C14.61 11.6701 14.8 11.7401 14.99 11.7401C15.18 11.7401 15.37 11.6701 15.52 11.5201C15.81 11.2301 15.81 10.7501 15.52 10.4601L15.05 9.99011Z" fill="currentColor"/>
</svg>

<svg xmlns="http://www.w3.org/2000/svg" width="24" height="24" fill="none"><path fill="currentColor" d="M15.42 3.16c.99-.11 2.04-.17 3.15-.16 1.33.01 2.42 1.1 2.43 2.43.01 1.16-.05 2.25-.17 3.28l-5.41-5.56v.01ZM3.17 15.28c-.12 1.03-.18 2.12-.17 3.28.01 1.33 1.1 2.42 2.43 2.43 1.11.01 2.16-.05 3.15-.16l-5.41-5.56v.01Zm17.36-4.72c-1.16 5.55-4.54 8.88-10.13 10l-6.94-7.13C4.62 7.88 8 4.55 13.59 3.43l6.94 7.13Zm-5.48-.57.47-.47c.29-.29.29-.77 0-1.06a.754.754 0 0 0-1.06 0l-.47.47-.47-.47a.754.754 0 0 0-1.06 0c-.29.29-.29.77 0 1.06l.47.47-.94.94-.97-.97a.754.754 0 0 0-1.06 0c-.29.29-.29.77 0 1.06l.97.97-.94.94-.47-.47a.754.754 0 0 0-1.06 0c-.29.29-.29.77 0 1.06l.47.47-.47.47c-.29.29-.29.77 0 1.06.15.15.34.22.53.22s.38-.07.53-.22l.47-.47.47.47c.15.15.34.22.53.22s.38-.07.53-.22c.29-.29.29-.77 0-1.06l-.47-.47.94-.94.97.97c.15.15.34.22.53.22s.38-.07.53-.22c.29-.29.29-.77 0-1.06l-.97-.97.94-.94.47.47c.15.15.34.22.53.22s.38-.07.53-.22c.29-.29.29-.77 0-1.06l-.47-.47Z"/></svg>
